X: 30
T: Little Ben  [C]
O: from Merrill's manuscript
O: from Thompson's "Twenty Four Country Dances for the Year 1793"
R: reel
Z: 2010 John Chambers <jc:trillian.mit.edu>
M: 2/4
L: 1/16
K: C
|: "C"C2CC C2C2 | "C"E2CC  C2C2 | "C"c4      g4 |"Dm"f4 d4 \
|  "G"G2GG G2G2 | "G7"G4   f2d2 | "C"c4 "(F)"c4 | "C"c8 :|
|:"G7"G2de fedc | "G7"B2d2 B2G2 | "C"E2C2  E2G2 | "C"cdef g2e2 \
| "Dm"f2de fedc | "G7"B2d2 B2G2 | "C"c4 "(F)"c4 | "C"c8 :|
|: "C"g4   gagf |"(Am)"e4  e4   |"Dm"f4      f4 |"G7"d4 z2 \
|  "C"e4   efed | "Am"c2e2 c2e2 |"Dm"d4  "G7"d4 | "C"c8 :|

%%sep 2 1 500

